images/facebook.svg

<svg fill="none" height="18" viewBox="0 0 12 18" width="12" xmlns="http://www.w3.org/2000/svg"><path d="m3.65399 17.5355-.02501-7.63365h-3.271558v-3.27157h3.271558v-2.18104c0-2.94353 1.82282-4.3620818 4.44865-4.3620818 1.2578 0 2.33887.0936428 2.65387.1354968v3.076165l-1.82117.00083c-1.42807 0-1.70458.6786-1.70458 1.67439v1.65624h4.05685l-1.0905 3.27157h-2.96636v7.63365z" fill="#546ce9"/></svg>

<svg width="12" height="18" viewBox="0 0 12 18" fill="none" xmlns="http://www.w3.org/2000/svg"><path d="M3.65399 17.5355L3.62898 9.90185H0.357422V6.63028H3.62898V4.44924C3.62898 1.50571 5.4518 0.0871582 8.07763 0.0871582C9.33543 0.0871582 10.4165 0.180801 10.7315 0.222655V3.29882L8.91033 3.29965C7.48226 3.29965 7.20575 3.97825 7.20575 4.97404V6.63028H11.2626L10.1721 9.90185H7.20574V17.5355H3.65399Z" fill="#546CE9"/></svg>
